!!!CDT:
!!!PTL: Il secondo libro delle canzonette a 3 voci
!!!PPP: Venice
!!!PPR: Amadino
!!!PDT: 1600
!!!PUB-format:
!!!RISM: M 2933
!!!AGN: Madrigal
!!!SCT: Tsg16013a
!!!SCA: Tsg16013a
!!!original-voices: 3
!!!extant-voices: 3
!!!complete: Y
!!!final: F
!!!COM: Molinaro, Simone
!!!OTL: Vola fra gli altri un che le piume ha sparte
**kern	**text	**kern	**text	**kern	**text
*part3	*part3	*part2	*part2	*part1	*part1
*staff3	*staff3	*staff2	*staff2	*staff1	*staff1
*I"Basso	*	*I"Tenore	*	*I"Canto	*
*I'B	*	*I'T	*	*I'C	*
*oclefC4	*	*oclefC1	*	*oclefC1	*
*clefGv2	*	*clefG2	*	*clefG2	*
*k[b-]	*	*k[b-]	*	*k[b-]	*
*F:	*	*F:	*	*F:	*
*omet(C)	*	*omet(C)	*	*omet(C)	*
*M2/2	*	*M2/2	*	*M2/2	*
=1	=1	=1	=1	=1	=1
1r	.	1r	.	2cc	Vo-
.	.	.	.	4cc	-la
.	.	.	.	4cc	fra
=2	=2	=2	=2	=2	=2
1r	.	2r	.	2dd	gli al-
.	.	2f	.	4cc	-tri un
.	.	.	.	8a	che
.	.	.	.	8b-y	le
=3	=3	=3	=3	=3	=3
1r	.	4f	Vo-	4cc	piu-
.	.	4f	-la	4a	-me ha
.	.	2g	fra	2b-y	spar-
=4	=4	=4	=4	=4	=4
1r	.	4f	gli al-	2a	-te
.	.	8d	-tri un	.	.
.	.	8e	che	.	.
.	.	4f	le	2a	Di
.	.	4d	piu-	.	.
=5	=5	=5	=5	=5	=5
2c	Vo-	4e	-me ha	4g	co-
.	.	2f	spar-	4f	-lor
4c	-la	.	.	2g	va-
4c	fra	4e	.	.	.
=6	=6	=6	=6	=6	=6
2d	gli al-	2f	.	4f	-ri,
.	.	.	.	8a	che
.	.	.	.	8b-y	le
4c	-tri un	4g	-te,	4.cc	piu-
8A	che	4cc	Vo-	.	.
8B-y	le	.	.	16b-yL	.
.	.	.	.	16aJ	.
=7	=7	=7	=7	=7	=7
4c	piu-	4cc	-la	4g	.
4A	-me ha	4cc	fra	2a	-me ha
2B-y	spar-	2dd	gli al-	.	.
.	.	.	.	4g	spar-
=8	=8	=8	=8	=8	=8
4A	-te,	4cc	-tri un	4a	-te,
4F	Vo-	8a	che	8cc	che
.	.	8b-y	le	8b-y	le
4F	-la	4cc	piu-	4a	piu-
4F	fra	4a	-me ha	[4f	-me ha
=9	=9	=9	=9	=9	=9
2G	gli al-	2b-y	spar-	4f]	.
.	.	.	.	4e	spar-
4F	-tri un	4a	-te,	2f	-te,
8D	che	8f	che	.	.
8E	le	8g	le	.	.
=10	=10	=10	=10	=10	=10
4.F	piu-	4.a	piu-	4r	.
.	.	.	.	4c	Vo-
16EL	.	16gL	.	.	.
16DJ	.	16fJ	.	.	.
4E	.	4g	.	4c	-la
4F	-me ha	4a	-me ha	4c	fra
=11	=11	=11	=11	=11	=11
8BB-yL	spar-	2b-y	spar-	2d	gli al-
8C	.	.	.	.	.
8D	.	.	.	.	.
8EJ	.	.	.	.	.
4F	.	4a	-te,	4c	-tri un
8F	-te	4cc	Vo-	4f	che
8G	Di	.	.	.	.
=12	=12	=12	=12	=12	=12
4A	co-	4cc	-la	4e	le
4A	-lor	4cc	fra	2f	piu-
2B-y	va-	2dd	gli al-	.	.
.	.	.	.	4g	-me ha
=13	=13	=13	=13	=13	=13
4A	-ri,	4cc	-tri un	4.a	spar-
8F	che	8a	che	.	.
8G	le	8b-y	le	16gL	.
.	.	.	.	16fJ	.
4A	piu-	4cc	piu-	4e	.
4F	-me ha	4a	-me ha	[4f	.
=14	=14	=14	=14	=14	=14
2G	spar-	2b-y	spar-	4f]	.
.	.	.	.	4e	.
8FL	.	2a	.	4f	-te
8G	.	.	.	.	.
8A	.	.	.	[4cc	Di
8B-yJ	.	.	.	.	.
=15	=15	=15	=15	=15	=15
4c	-te	4g	-te	4cc]	.
4.f	Di	4.a	Di	4cc	co-
.	.	.	.	2cc	-lor
8f	co-	8a	co-	.	.
4e	-lor	4g	-lor	.	.
=16	=16	=16	=16	=16	=16
4d	va-	4f	va-	4b-y	va-
4f	-ri, ed	4f	-ri ed	4a	-ri, ed
4c	ha	4e	ha	4g	ha
4A	pur-	4a	pur-	4cc	pur-
=17	=17	=17	=17	=17	=17
4B-y	-pu-	4g	-pu-	2.b-y	-pu-
4B-y	-reo il	4f	-reo il	.	.
[2c	ro-	4e	ro-	.	.
.	.	[4f	.	4a	-reo il
=18	=18	=18	=18	=18	=18
2c]	.	4f]	.	2g	ro-
.	.	4e	.	.	.
2F	-stro;	[2f	-stro;	2a	-stro;
=19	=19	=19	=19	=19	=19
2F	E	1f]	.	4r	.
.	.	.	.	4cc	E
4B-y	lin-	.	.	4dd	lin-
4B-y	-gua	.	.	4dd	-gua
=20	=20	=20	=20	=20	=20
4A	sno-	4r	.	4cc	sno-
4F	-d'in	4c	E	4a	-d'in
4A	gui-	4f	lin-	4cc	gui-
4B-y	-sa	4f	-gua	8b-y	-sa
.	.	.	.	8a	lar-
=21	=21	=21	=21	=21	=21
2.c	lar-	4e	sno-	2.g	-ga e
.	.	4c	-d'in	.	.
.	.	4e	gui-	.	.
8B-yL	-ga e	4f	-sa	4a	par-
8AJ	.	.	.	.	.
=22	=22	=22	=22	=22	=22
1G	par-	4g	lar-	2b-y	-te
.	.	4a	-ga e	.	.
.	.	2b-y	par-	2g	La
=23	=23	=23	=23	=23	=23
4F	-te	4a	-te	4cc	vo-
4G	La	4g	La	4b-y	-ce
4.A	vo-	4f	vo-	4a	sì,
.	.	4f	-ce	4a	ch'as-
8B-y	-ce	.	.	.	.
=24	=24	=24	=24	=24	=24
4c	sì,	2e	sì,	4g	-sem-
4C	ch'as-	.	.	4e	-bra il
4D	-sem-	4r	.	4f	ser-
4E	-bra il	4cc	ch'as-	4g	-mon
=25	=25	=25	=25	=25	=25
2F	ser-	4cc	-sem-	8aL	no-
.	.	.	.	8g	.
.	.	4f	-bra il	8a	.
.	.	.	.	8b-yJ	.
2F	-mon	8aL	ser-	4cc	.
.	.	8g	.	.	.
.	.	8f	.	4a	.
.	.	8eJ	.	.	.
=26	=26	=26	=26	=26	=26
1G	no-	4d	.	4bnX	.
.	.	4c	-mon	2cc	.
.	.	2d	no-	.	.
.	.	.	.	4bnX	.
=27	=27	=27	=27	=27	=27
2C	-stro;	2c	-stro;	1cc	-stro;
2c	Que-	2e	Que-	.	.
=28	=28	=28	=28	=28	=28
4c	-st'i-	4e	-st'i-	2g	Que-
4c	-vi a	4e	-vi a	.	.
[2B-y	l'hor	4d	l'hor,	4g	-st'i-
.	.	4dd	Que-	4g	-vi a
=29	=29	=29	=29	=29	=29
4B-]	.	4dd	-st'i-	2.f	l'hor
4B-y	con-	4dd	-vi a	.	.
4A	-ti-	[2cc	l'hor	.	.
4B-y	-no-	.	.	4f	con-
=30	=30	=30	=30	=30	=30
4c	-uò	4cc]	.	4e	-ti-
4A	con	4cc	con-	4f	-no-
2G	ar-	4b-y	-ti-	4g	-uò
.	.	4cc	-no-	4a	con
=31	=31	=31	=31	=31	=31
4G	-te,	2.dd	-uò	2.b-y	ar-
4A	con-	.	.	.	.
4B-y	-ti-	.	.	.	.
4c	-no-	8ccL	.	8aL	.
.	.	8b-yJ	.	8gJ	.
=32	=32	=32	=32	=32	=32
4d	-uò	4a	.	4f#X	.
4e-X	con	4g	con	4g	.
2d	ar-	2f#X	ar-	2a	.
=33	=33	=33	=33	=33	=33
4d	-te	4f#i	-te	4a	-te
4B-y	Tan-	4b-y	Tan-	4dd	Tan-
4B-y	-to il	4b-y	-to il	4dd	-to il
4B-y	par-	4b-y	par-	4dd	par-
=34	=34	=34	=34	=34	=34
4F	-lar,	4a	-lar,	1cc	-lar,
4f	che	4a	che	.	.
4.e	fu	4.g	fu	.	.
8f	mi-	8a	mi-	.	.
=35	=35	=35	=35	=35	=35
4d	-ra-	4b-y	-ra-	1r	.
2f	-bil	4a	-bil	.	.
.	.	2g	mo-	.	.
4e	mo-	.	.	.	.
=36	=36	=36	=36	=36	=36
4f	-stro,	4a	-stro,	4r	.
4B-y	Tan-	4f	Tan-	4dd	Tan-
4B-y	-to il	4.f	-to il	4dd	-to il
4B-y	par-	.	.	4dd	par-
.	.	8g	par-	.	.
=37	=37	=37	=37	=37	=37
4F	-lar,	4a	-lar,	4cc	-lar,
4F	che	4f	che	4a	che
4.c	fu	4.e	fu	4.g	fu
8BnX	mi-	8d	mi-	8g	mi-
=38	=38	=38	=38	=38	=38
4c	-ra-	4e	-ra-	4g	-ra-
4d	-bil	2d	-bil	4f	-bil
2A	mo-	.	.	2e	mo-
.	.	4c#X	mo-	.	.
=39	=39	=39	=39	=39	=39
2D	-stro.	2d	-stro.	2d	-stro.
4r	.	4r	.	4r	.
[4G	Tac-	[4BnX	Tac-	[4d	Tac-
=40	=40	=40	=40	=40	=40
8G]	.	8B]	.	8d]	.
8G	-que-	8BnXi	-que-	8d	-que-
4G	-ro	4Bni	-ro	4d	-ro
2C	gli al-	2c	gli al-	2e-X	gli al-
=41	=41	=41	=41	=41	=41
2G	-tri ad	2BnX	-tri ad	4d	-tri ad
.	.	.	.	2g	a-
4BnX	a-	4d	a-	.	.
4c	-scol-	4e	-scol-	4a	-scol-
=42	=42	=42	=42	=42	=42
4d	-tar-	4f#X	-tar-	4bnX	-tar-
4e	-lo in-	4g	-lo in-	4cc	-lo in-
[2f	-ten-	[2a	-ten-	[2cc	-ten-
=43	=43	=43	=43	=43	=43
2f]	.	2a]	.	2cc]	.
2f	-ti,	2a	-ti,	2cc	-ti,
=44	=44	=44	=44	=44	=44
4r	.	4r	.	4r	.
2f	E	2a	E	2cc	E
4c	fer-	4g	fer-	4cc	fer-
=45	=45	=45	=45	=45	=45
2e-X	-ma-	2g	-ma-	2b-y	-ma-
4e-i	-ro i	4g	-ro i	4b-y	-ro i
4f	su-	4f	su-	4a	su-
=46	=46	=46	=46	=46	=46
4c	-sur-	4e	-sur-	4g	-sur-
4c	-ri in	4e	-ri in	4g	-ri in
[2F	a-	4f	a-	4a	a-
.	.	4g	-ria i	4b-y	-ria i
=47	=47	=47	=47	=47	=47
4F]	.	2.a	ven-	2.cc	ven-
4G	-ria i	.	.	.	.
4A	ven-	.	.	.	.
4B-y	.	8gL	.	8b-yL	.
.	.	8fJ	.	8aJ	.
=48	=48	=48	=48	=48	=48
8cL	.	8eL	.	4g	.
8B-y	.	8d	.	.	.
8A	.	8c	.	4.f	.
8GJ	.	8B-yJ	.	.	.
4.F	.	8AL	.	.	.
.	.	8B-y	.	8gL	.
.	.	8c	.	8a	.
16EL	.	8dJ	.	8b-yJ	.
16DJ	.	.	.	.	.
=49	=49	=49	=49	=49	=49
1C	.	4e	.	4cc	.
.	.	2f	.	4a	.
.	.	.	.	2g	.
.	.	4e	.	.	.
=50	=50	=50	=50	=50	=50
1Fl	-ti.	1fl	-ti.	1al	-ti.
==	==	==	==	==	==
*-	*-	*-	*-	*-	*-
!!!system-decoration: [*]
!!!RDF**kern: i = editorial accidental
!!!RDF**kern: l = terminal long
!!!ENC: Emiliano Ricciardi
!!!END: 2019
!!!EED: Ricciardi, Emiliano
!!!EEV: 2019/05/13
!!!YEC: Copyright 2018 Emiliano Ricciardi, All Rights Reserved
!!!ONB: Translated from MusicXML on 2019/05/13
!!@@BEGIN:	VERSEDATA
!!@CATALOGNUM:	Tsg16013
!!@LAST_MODIFIED: 2020/07/12
!!@TITLE:		Vola fra gli altri un che le piume ha sparte
!!@CANTO:		XVI
!!@OTTAVA:	13
!!@MANUSRC:	G-Al, G-Au, G-Br<sub>1</sub>, G-Br<sub>2</sub>, G-Cv, G-Es<sub>1</sub>, G-Es<sub>2</sub>, G-Es<sub>3</sub>, G-F, G-Fr, G-Fr<sub>1</sub>, G-Fr<sub>2</sub>, G-Mc<sub>1</sub>, G-Mg, G-Mr, G-Mt, G-N, G-Ol
!!@PRINTSRC:	G-1580CM, G-1581B, G-1581CV, G-1581R, G-1581MR, G-1581P, G-1581V, G-1581V<sub>bis</sub>, G-1582C, G-1582M, G-1582MC, G-1582P, G-1582SC, G-1582SC<sub>bis</sub>, G-1583S, G-1584O, G-1584S, G-1585C, G-1585S, G-1588S, G-1589S, G-1590B, G-1590S, G-1592S, G-1593S, G-1594C, G-1595C, G-1597C, G-1598C, G-1599C, G-1600C, G-1600S, G-1601C, G-1601R, G-1602C, G-1604C, G-1604Cl, G-1604F, G-1604P, G-1606B, G-1606B<sub>bis</sub>, G-1606L, G-1607ZR, G-1608DP, G-1609GC, G-1610M, G-1611S, G-1611V, G-1612P, G-1613M, G-1613P, G-1613V, G-1615P, G-1616M, G-1617P, G-1619B, G-1619V, G-1620M, G-1620S, G-1621R, G-1624I, G-1624MT, G-1625C, G-1625S, G-1625SS, G-1626C, G-1626Co, G-1627M, G-1628T, G-1628Tu, G-1630L, G-1630T, G-1632FT, G-1639CF, G-1642M, G-1643I, G-1644P, G-1644S
!!@@BEGIN:	VERSES
!!@ABOUTIT:
!!@ABOUTEN:
!!@EDITOR:	Angelo Solerti
!!@EDITION_TITLE: Gerusalemme liberata. Poema eroico di Torquato Tasso. Edizione critica sui manoscritti e le prime stampe.
!!@EDITION_LOC:	Florence
!!@EDITION_PUB:	G. Barbera
!!@EDITION_DATE:  1895
!!@EDITION_VOL:
!!@EDITION_PAGE:
!!@TRANSLATOR:	Emiliano Ricciardi and Amyrose McCue Gill
!!@VERSE:
!!	Vola fra gli altri un che le piume ha sparte
!!	Di color vari, ed ha purpureo il rostro;
!!	E lingua snoda in guisa larga, e parte
!!	La voce sì, ch’assembra il sermon nostro:
!!	Quest’ivi allor continuò con arte
!!	Tanta il parlar, che fu mirabil mostro.
!!	Tacquero gli altri ad ascoltarlo intenti,
!!	E fermaro i susurri in aria i venti.
!!@MVERSE_DATE: 20230824
!!@MVERSE:
!!	Vola fra gli altri un che le piume ha sparte		=a
!!	Di color vari, ed ha purpureo il rostro;		=b
!!	E lingua snoda in guisa larga, e parte			=a
!!	La voce sì, ch’assembra il sermon nostro:		=b
!!	Quest’ivi allor continuò con arte			=a
!!	Tanta il parlar, che fu mirabil mostro.			=b
!!	Tacquero gli altri ad ascoltarlo intenti,		=c
!!	E fermaro i susurri in aria i venti.			=c
!!@TVERSE:
!!	One flies among the others whose feathers are strewn
!!	With various colors, and has a bright red beak;
!!	And he looses his tongue in a wide open manner, and emerges
!!	Such a voice that it seems like our sermon:
!!	This there then he continued with such art
!!	His speech that it was a wondrous display.
!!	The others fell silent to listen to him attentively,
!!	And the winds ceased their whispers in the air.
!!@@END:		VERSES
!!@OTHER_CRIT_ED:  Torquato Tasso, <i>Gerusalemme liberata</i>, ed. Lanfranco Caretti, 2 vols. (Bari: Laterza, 1967).
!!@ATTRIBUTION_ABOUT:
!!@DATING:	mid-1560s through 1570s
!!@DEDICATEE:	Duke Alfonso II d'Este
!!@COMMENTARY:
!!@@END:		VERSEDATA
!!@@BEGIN: SETTING
!!@CATALOGNUM:	Tsg16013a
!!@CANTO:		XVI
!!@OTTAVA:	13
!!@TITLE:	Vola fra gli altri un che le piume ha sparte
!!@COMPOSER:	Molinaro, Simone
!!@PARTS:		1 of 1
!!@PRINCEPSTITLE:	Il secondo libro delle canzonette a 3 voci
!!@PRINCEPSLOC:	Venice
!!@NORMLOC:	Venice
!!@NORMPUB:	Amadino
!!@NORMPUBSHORT:	Amadino
!!@PRINCEPSPUB:	Amadino
!!@PRINCEPSYEAR:	1600
!!@PRINCEPSRISM:	M 2933
!!@OVOICES:	3
!!@EXTANTVOICES:	3
!!@OMENSURATION:	C
!!@OCLEFS:	C1,C1,C4
!!@OTIME:		
!!@OKEYSIG:	b-
!!@FINAL:		F
!!@TIMPEDITOR:	Ricciardi, Emiliano
!!@REPRINTS:	
!!@@END: SETTING
